X: 20542
T: GIPSY CHORUS.     in Preciosa.
Q: "Moderato"
%R: reel, march
B: "Edinburgh Repository of Music" v.2 p.54 #2
F: http://digital.nls.uk/special-collections-of-printed-music/pageturner.cfm?id=87776133
Z: 2015 John Chambers <jc:trillian.mit.edu>
M: C
L: 1/16
K: G
d2 |\
b3b a2d2 g4 z2D2 | B3B A2D2 G6 z2 |\
Bcde d^cd2 gcd2 gcd2 | AGFG ABA2 fAc2 fAc2 |\
Bcde d^cd2 gcd2 gcd2 |
AGFG ABA2 fAc2 fAc2 |\
Bcde d^cd2 gcd2 gcd2 | g^cd2 z2B2 g^cd2 z2B2 |\
G4 g3g g3g g3g | g4 b4 g4 z4 |]

%%sep 2 1 500
%%sep 1 1 500

